X: 3312
T: Jydsk Springdans
B:[[Notböcker/Melodier til gamle danske Almuedanse for Violin solo]]
O:Danmark
Z:Søren Bak Vestergaard
M: 2/4
L: 1/16
K: D
A2(dc)d2B2|A2(dc)d2B2|A2F2G2E2|1 (E2D2) D4:|2 D4 z4|:(CDEF) (GFED)|C2A,2 A,4|\
(CDEF) (GFED)|C2A,2 A,4|ABA^G A2c2|BcB^A B2d2|cdcB A2Bc|d4 z4:|\
|:!downbow!d4 f4|(af)d2 (af)d2|(ge)c2 (ge)c2|(d2f2) A4|d4 f4|(af)d2 (af)d2|(ge)c2 (ge)c2|d4 z4:|
(:musicend:)
(:music:)
